X:1
T:Prinsessen
T:Prinsessen
T:Christian Haslerud
T:Bj. Bjørnson
C:Christian Haslerud
Z:Bj. Bjørnson
%%score [ 1 2 3 4 ]
L:1/8
Q:1/4=42
M:3/8
K:D
V:1 treble nm="Soprano"
V:2 treble nm="Alto"
V:3 treble-8 nm="Tenor"
V:4 bass nm="Bass"
V:1
"^Vemodigt"!p! F | F3/2 E/ D | C3/2 D/ E | D2 D | C2 F | F3/2 G/ F | A G F | E D E | F2 F | %9
w: Prin-|ses- sen sad|høit i sit|Jom- fru-|bur Smaa-|gut- ten gik|ne- de og|blaa- ste paa|lur. Hvi|
 ^A B c | d d c | B c B | ^A2 F | =A3/2 G/ F | E F G | B A G | !fermata!F2!f! d3/4 d/4 | c2 B | %18
w: blaa- ser du|al- tid Ti|stil- le du|smaa, det|hæf- ter min|Tan- ke som|vi- de vil|gaa Nu naar|Sol gaar|
 F z!pp! E3/4 E/4 | D2 C | B, z |] %21
w: ned, nu naar|Sol gaar|ned.|
V:2
!p! F | B,3/2 ^A,/ B, | C3/2 B,/ C | B,2 B, | ^A,2 D | D3/2 E/ D | D C D | C B, C | D2 C | F F F | %10
w: Prin-|ses- sen sad|høit i sit|Jom- fru-|bur Smaa-|gut- ten gik|ne- de og|blaa- ste paa|lur. Hvi|blaa- ser du|
 F F E | D G G | F2 F | D3/2 C/ D | E D D | D D C | !fermata!D2!f! F3/4 F/4 | F2 D | %18
w: al- tid Ti|stil- le du|smaa, det|hæf- ter min|Tan- ke som|vi- de vil|gaa Nu naar|Sol gaar|
 C z!pp! ^A,3/4 A,/4 | B,2 ^A, | B, z |] %21
w: ned, nu naar|Sol gaar|ned.|
V:3
!p! F | F3/2 F/ F | F3/2 F/ F | F2 F | G2 A | A3/2 A/ A | A A A | A A A | A2 ^A | c d c | B B ^A | %11
w: Prin-|ses- sen sad|høit i sit|Jom- fru-|bur Smaa-|gut- ten gik|ne- de og|blaa- ste paa|lur. Hvi|blaa- ser du|al- tid Ti|
 B e d | c2 F | F3/2 A/ A | A A G | G F A | !fermata!A2!f! B3/4 B/4 | ^A2 F | ^A z!pp! F3/4 F/4 | %19
w: stil- le du|smaa, det|hæf- ter min|Tan- ke som|vi- de vil|gaa Nu naar|Sol gaar|ned, nu naar|
 F2 F | D z |] %21
w: Sol gaar|ned.|
V:4
!p! F, | D,3/2 C,/ B,, | F,3/2 F,/ F, | B,,2 D, | G,2 D, | D,3/2 C,/ D, | F,, A,, D, | A, A, A, | %8
w: Prin-|ses- sen sad|høit i sit|Jom- fru-|bur Smaa-|gut- ten gik|ne- de og|blaa- ste paa|
 D,2 F, | F, D, ^A,, | B,, D, F, | G, E, E, | F,2 F, | F,3/2 E,/ D, | C, D, B,, | G,, D, A,, | %16
w: lur. Hvi|blaa- ser du|al- tid Ti|stil- le du|smaa, det|hæf- ter min|Tan- ke som|vi- de vil|
"_\n\n\n2. Prinsessen sad høit i sit Jomfrubur,\nSmaagutten lod være at blaase på Lur.\nHvi tier du stille, blaas mere, du smaa,\ndet løfter min Tanke, som vide vil gaa,\nnu, naar Sol gaar ned.\n\n3. Prinsessen sad høit i sit Jomfrubur,\nSmaagutten tog atter og blaaste på Lur.\nDa græd hun i Aftnen og sukkede ud:\no, sig mig, hvad er det mig fejler, min Gud! \nNu gik Solen ned." !fermata!D,2!f! B,,3/4 B,,/4 | %17
w: gaa Nu naar|
 F,2 F, | F, z!pp! C,3/4 C,/4 | B,,2 F, | B,, z |] %21
w: Sol gaar|ned, nu naar|Sol gaar|ned.|

